priv/static/svgs/icons_new/sport-car-racing.svg

<svg width="32" height="32" viewBox="0 0 32 32" fill="none" xmlns="http://www.w3.org/2000/svg">
<path d="M27.5567 21.1935V16.8195C27.5567 16.3802 27.4767 15.9457 27.3166 15.5347L24.791 9.31856C24.3459 8.2227 23.2307 7.5 21.9904 7.5H10.1175C8.87724 7.5 7.76198 8.2227 7.31687 9.31856L4.79127 15.5347C4.63123 15.9457 4.55121 16.3802 4.55121 16.8195V21.1935M27.5567 21.1935C27.5567 21.7131 27.1066 22.1382 26.5565 22.1382H5.55145C5.00132 22.1382 4.55121 21.7131 4.55121 21.1935M27.5567 21.1935V23.5553C27.5567 24.0749 27.1066 24.5 26.5565 24.5H25.0561C24.506 24.5 24.0559 24.0749 24.0559 23.5553V22.1382M4.55121 21.1935V23.5553C4.55121 24.0749 5.00132 24.5 5.55145 24.5H7.05181C7.60194 24.5 8.05205 24.0749 8.05205 23.5553V22.1382M5.55145 14.1082L6.28162 14.3397C6.79175 14.5003 7.32687 14.5806 7.862 14.5806H24.2459C24.781 14.5806 25.3162 14.5003 25.8263 14.3397L26.5565 14.1082M20.0549 20.2488H12.053M9.5524 18.8318H7.55193C6.72173 18.8318 6.05157 18.1988 6.05157 17.4147C6.05157 17.1549 6.27662 16.9423 6.55169 16.9423H8.55216C9.38236 16.9423 10.0525 17.5753 10.0525 18.3594C10.0525 18.6192 9.82747 18.8318 9.5524 18.8318ZM24.556 18.8318H22.5555C22.2804 18.8318 22.0554 18.6192 22.0554 18.3594C22.0554 17.5753 22.7255 16.9423 23.5557 16.9423H25.5562C25.8313 16.9423 26.0563 17.1549 26.0563 17.4147C26.0563 18.1988 25.3862 18.8318 24.556 18.8318ZM5.50072 13.6359H3.7503C3.06013 13.6359 2.5 13.1068 2.5 12.455C2.5 12.0629 2.83508 11.7465 3.25018 11.7465H4.75054C5.16564 11.7465 5.50072 12.0629 5.50072 12.455V13.6359ZM26.4993 13.6359H28.2497C28.9399 13.6359 29.5 13.1068 29.5 12.455C29.5 12.0629 29.1649 11.7465 28.7498 11.7465H27.2495C26.8344 11.7465 26.4993 12.0629 26.4993 12.455V13.6359Z" stroke="black" stroke-miterlimit="10" stroke-linecap="round"/>
</svg>

<svg width="32" height="32" viewBox="0 0 32 32" fill="none" xmlns="http://www.w3.org/2000/svg">
  <symbol id="item" viewBox="0 0 32 32" stroke-width="1" fill="none">
    <path d="M27.557 21.194V16.82c0-.44-.08-.874-.24-1.285L24.79 9.319c-.445-1.096-1.56-1.819-2.8-1.819H10.117c-1.24 0-2.356.723-2.801 1.819L4.79 15.535c-.16.41-.24.845-.24 1.285v4.373m23.006 0c0 .52-.45.945-1 .945H5.55c-.55 0-1-.425-1-.945m23.006 0v2.362c0 .52-.45.945-1 .945h-1.5c-.551 0-1.001-.425-1.001-.945v-1.417M4.55 21.193v2.362c0 .52.45.945 1 .945h1.5c.55 0 1.001-.425 1.001-.945v-1.417m-2.5-8.03.73.232c.51.16 1.045.24 1.58.24h16.384c.535 0 1.07-.08 1.58-.24l.73-.232m-6.501 6.14h-8.002m-2.5-1.416H7.551c-.83 0-1.5-.633-1.5-1.417 0-.26.225-.473.5-.473h2c.83 0 1.5.633 1.5 1.417 0 .26-.225.473-.5.473Zm15.003 0h-2c-.276 0-.5-.213-.5-.473 0-.784.67-1.417 1.5-1.417h2c.275 0 .5.213.5.473 0 .784-.67 1.417-1.5 1.417ZM5.501 13.636H3.75c-.69 0-1.251-.53-1.251-1.181 0-.392.335-.709.75-.709h1.5c.416 0 .75.317.75.709v1.18Zm20.998 0h1.75c.69 0 1.251-.53 1.251-1.181 0-.392-.335-.709-.75-.709h-1.5c-.416 0-.75.317-.75.709v1.18Z" stroke="currentColor" stroke-miterlimit="10" stroke-linecap="round"/>
  </symbol>
</svg>
